papirus/16x16/apps/0ad.svg

<svg height="16" viewBox="0 0 16 16" width="16" xmlns="http://www.w3.org/2000/svg"><path d="m8 0a8 8 0 0 0 -8 8 8 8 0 0 0  8 8 8 8 0 0 0  8-8 8 8 0 0 0 -8-8z" fill="#c8ab37"/><path d="m7 2.0859375a6 6 0 0 0 -4.9101562 4.9140625h4.9101562zm2 .0039063v4.9101562h4.914062a6 6 0 0 0 -4.914062-4.9101562zm-6.9140625 6.9101562a6 6 0 0 0 4.9140625 4.910156v-4.910156zm6.9140625 0v4.914062a6 6 0 0 0 4.910156-4.914062z" fill="#fff"/></svg>

<?xml version="1.0" encoding="UTF-8" standalone="no"?>
<svg
   xmlns:dc="http://purl.org/dc/elements/1.1/"
   xmlns:cc="http://creativecommons.org/ns#"
   xmlns:rdf="http://www.w3.org/1999/02/22-rdf-syntax-ns#"
   xmlns:svg="http://www.w3.org/2000/svg"
   xmlns="http://www.w3.org/2000/svg"
   xmlns:sodipodi="http://sodipodi.sourceforge.net/DTD/sodipodi-0.dtd"
   xmlns:inkscape="http://www.inkscape.org/namespaces/inkscape"
   version="1.1"
   id="svg4261"
   viewBox="0 0 16 16"
   height="16"
   width="16"
   inkscape:version="0.91 r13725"
   sodipodi:docname="0ad.svg">
  <sodipodi:namedview
     pagecolor="#828282"
     bordercolor="#666666"
     borderopacity="1"
     objecttolerance="10"
     gridtolerance="10"
     guidetolerance="10"
     inkscape:pageopacity="0"
     inkscape:pageshadow="2"
     inkscape:window-width="1600"
     inkscape:window-height="849"
     id="namedview10"
     showgrid="false"
     inkscape:zoom="1"
     inkscape:cx="8.541759"
     inkscape:cy="7.093756"
     inkscape:window-x="0"
     inkscape:window-y="0"
     inkscape:window-maximized="1"
     inkscape:current-layer="svg4261" />
  <defs
     id="defs4263" />
  <metadata
     id="metadata4266">
    <rdf:RDF>
      <cc:Work
         rdf:about="">
        <dc:format>image/svg+xml</dc:format>
        <dc:type
           rdf:resource="http://purl.org/dc/dcmitype/StillImage" />
        <dc:title></dc:title>
      </cc:Work>
    </rdf:RDF>
  </metadata>
  <path
     inkscape:connector-curvature="0"
     style="opacity:1;fill:#c8ab37;fill-opacity:1;stroke:none;stroke-width:0.2;stroke-miterlimit:4;stroke-dasharray:none;stroke-opacity:1"
     d="M 8,0 A 8,8 0 0 0 0,8 8,8 0 0 0 8,16 8,8 0 0 0 16,8 8,8 0 0 0 8,0 Z"
     id="path4153" />
  <path
     style="opacity:1;fill:#ffffff;fill-opacity:1;stroke:none;stroke-width:2;stroke-linecap:butt;stroke-linejoin:miter;stroke-miterlimit:4;stroke-dasharray:none;stroke-opacity:1"
     d="M 7 2.0859375 A 6 6 0 0 0 2.0898438 7 L 7 7 L 7 2.0859375 z M 9 2.0898438 L 9 7 L 13.914062 7 A 6 6 0 0 0 9 2.0898438 z M 2.0859375 9 A 6 6 0 0 0 7 13.910156 L 7 9 L 2.0859375 9 z M 9 9 L 9 13.914062 A 6 6 0 0 0 13.910156 9 L 9 9 z "
     id="path4332" />
</svg>
